www/assets/icons/backup.svg

<svg xmlns="http://www.w3.org/2000/svg" width="24" height="24" viewBox="0 0 24 24" fill='currentColor'><path d="M19.35 10.04A7.49 7.49 0 0 0 12 4C9.11 4 6.6 5.64 5.35 8.04A5.994 5.994 0 0 0 0 14c0 3.31 2.69 6 6 6h13c2.76 0 5-2.24 5-5 0-2.64-2.05-4.78-4.65-4.96M14 13v4h-4v-4H7l5-5 5 5z"/></svg>

<svg width="24" height="24" viewBox="0 0 24 24" xmlns="http://www.w3.org/2000/svg" fill='currentColor'><path d="M19.35 10.04C18.67 6.59 15.64 4 12 4C9.11 4 6.6 5.64 5.35 8.04C2.34 8.36 0 10.91 0 14C0 17.31 2.69 20 6 20H19C21.76 20 24 17.76 24 15C24 12.36 21.95 10.22 19.35 10.04ZM14 13V17H10V13H7L12 8L17 13H14Z"/></svg>
